src/assets/icons/pul-icon-mobile.svg

<!-- Generated by IcoMoon.io -->
<svg version="1.1" xmlns="http://www.w3.org/2000/svg" width="16" height="16" viewBox="0 0 16 16">
<title>mobile</title>
<path d="M11 0h-6c-0.919 0-1.667 0.747-1.667 1.667v12.667c0 0.919 0.748 1.667 1.667 1.667h6c0.919 0 1.667-0.747 1.667-1.667v-12.667c0-0.919-0.747-1.667-1.667-1.667zM4 3.333h8v9.333h-8v-9.333zM5 0.667h6c0.552 0 1 0.449 1 1v1h-8v-1c0-0.551 0.449-1 1-1zM11 15.333h-6c-0.551 0-1-0.449-1-1v-1h8v1c0 0.551-0.448 1-1 1z"></path>
<path d="M9.667 14h-3.333c-0.184 0-0.333 0.149-0.333 0.333s0.149 0.333 0.333 0.333h3.333c0.184 0 0.333-0.149 0.333-0.333s-0.149-0.333-0.333-0.333z"></path>
<path d="M8.667 1.667c0 0.368-0.298 0.667-0.667 0.667s-0.667-0.298-0.667-0.667c0-0.368 0.298-0.667 0.667-0.667s0.667 0.298 0.667 0.667z"></path>
</svg>

<svg xmlns="http://www.w3.org/2000/svg" viewBox="0 0 16 16">
    <path d="M11 0H5c-.919 0-1.667.747-1.667 1.667v12.667A1.67 1.67 0 0 0 5 16.001h6c.919 0 1.667-.747 1.667-1.667V1.667C12.667.748 11.92 0 11 0zM4 3.333h8v9.333H4V3.333zM5 .667h6c.552 0 1 .449 1 1v1H4v-1c0-.551.449-1 1-1zm6 14.666H5c-.551 0-1-.449-1-1v-1h8v1c0 .551-.448 1-1 1z"/>
    <path d="M9.667 14H6.334a.333.333 0 1 0 0 .666h3.333a.333.333 0 1 0 0-.666zM8.667 1.667a.667.667 0 1 1-1.334 0 .667.667 0 0 1 1.334 0z"/>
</svg>
